X: 171
M: 6/8
L: 1/8
K: G
|:\
|:\
d3 dBG | F2G AFD | E2E EDC | B,2C DB,G, |\
d2d dBG | F2G AFD | EcB AGF | G3 G,3 :|

